images/yield-logo.svg

<svg height="250" viewBox="0 0 250 250" width="250" xmlns="http://www.w3.org/2000/svg"><path d="m250 125c0 69.035156-55.964844 125-125 125s-125-55.964844-125-125 55.964844-125 125-125 125 55.964844 125 125zm0 0" fill="#efbc83"/><path d="m246.324219 125c0 67.003906-54.320313 121.324219-121.324219 121.324219s-121.324219-54.320313-121.324219-121.324219 54.320313-121.324219 121.324219-121.324219 121.324219 54.320313 121.324219 121.324219zm0 0" fill="#31363a"/><path d="m191.450808 74.401895-45.22898 73.488465-21.280882-26.940087-20.611034 35.250268-17.960058-17.619045-18.288893 30.589747" fill="none" stroke="#efbc83" stroke-linecap="round" stroke-linejoin="round" stroke-width="17" transform="scale(.962205)"/></svg>

<svg xmlns="http://www.w3.org/2000/svg" xmlns:xlink="http://www.w3.org/1999/xlink" width="250px" height="250px" viewBox="0 0 250 250" version="1.1">
<g id="surface1">
<path style=" stroke:none;fill-rule:nonzero;fill:rgb(93.725491%,73.725492%,51.372552%);fill-opacity:1;" d="M 250 125 C 250 194.035156 194.035156 250 125 250 C 55.964844 250 0 194.035156 0 125 C 0 55.964844 55.964844 0 125 0 C 194.035156 0 250 55.964844 250 125 Z M 250 125 "/>
<path style=" stroke:none;fill-rule:nonzero;fill:rgb(19.215687%,21.176471%,22.745098%);fill-opacity:1;" d="M 246.324219 125 C 246.324219 192.003906 192.003906 246.324219 125 246.324219 C 57.996094 246.324219 3.675781 192.003906 3.675781 125 C 3.675781 57.996094 57.996094 3.675781 125 3.675781 C 192.003906 3.675781 246.324219 57.996094 246.324219 125 Z M 246.324219 125 "/>
<path style="fill:none;stroke-width:17;stroke-linecap:round;stroke-linejoin:round;stroke:rgb(93.725491%,73.725492%,51.372552%);stroke-opacity:1;stroke-miterlimit:4;" d="M 191.450808 74.401895 L 146.221828 147.89036 L 124.940946 120.950273 L 104.329912 156.200541 L 86.369854 138.581496 L 68.080961 169.171243 " transform="matrix(0.962205,0,0,0.962205,0,0)"/>
</g>
</svg>
